;FLAVOR: Reprap / Merlin
;Generated by Cell Spot welder automation SW
;X/Y tabel controller is based on Marlin FW with mod to M240 for welding
;Author: Karl Krisian Markman, Grenland Energy
 
G28 ; Home
;This file is set up to dwell before and after every spotweld. This dwell is set to P20

G1 X25 Y40
G4 P20
M240
G4 P200
G1 X27 Y40 E1
G4 P20
M240
G4 P200
G1 X45.6667 Y40
G4 P20
M240
G4 P200
G1 X47.6667 Y40 E1
G4 P20
M240
G4 P200
G1 X66.3333 Y40
G4 P20
M240
G4 P200
G1 X68.3333 Y40 E1
G4 P20
M240
G4 P200
G1 X87 Y40
G4 P20
M240
G4 P200
G1 X89 Y40 E1
G4 P20
M240
G4 P200
G1 X107.667 Y40
G4 P20
M240
G4 P200
G1 X109.667 Y40 E1
G4 P20
M240
G4 P200
G1 X128.333 Y40
G4 P20
M240
G4 P200
G1 X130.333 Y40 E1
G4 P20
M240
G4 P200
G1 X118 Y59.6299
G4 P20
M240
G4 P200
G1 X120 Y59.6299 E1
G4 P20
M240
G4 P200
G1 X97.3333 Y59.6299
G4 P20
M240
G4 P200
G1 X99.3333 Y59.6299 E1
G4 P20
M240
G4 P200
G1 X76.6667 Y59.6299
G4 P20
M240
G4 P200
G1 X78.6667 Y59.6299 E1
G4 P20
M240
G4 P200
G1 X56 Y59.6299
G4 P20
M240
G4 P200
G1 X58 Y59.6299 E1
G4 P20
M240
G4 P200
G1 X35.3333 Y59.6299
G4 P20
M240
G4 P200
G1 X37.3333 Y59.6299 E1
G4 P20
M240
G4 P200
G1 X25 Y79.2598
G4 P20
M240
G4 P200
G1 X27 Y79.2598 E1
G4 P20
M240
G4 P200
G1 X45.6667 Y79.2598
G4 P20
M240
G4 P200
G1 X47.6667 Y79.2598 E1
G4 P20
M240
G4 P200
G1 X66.3333 Y79.2598
G4 P20
M240
G4 P200
G1 X68.3333 Y79.2598 E1
G4 P20
M240
G4 P200
G1 X87 Y79.2598
G4 P20
M240
G4 P200
G1 X89 Y79.2598 E1
G4 P20
M240
G4 P200
G1 X107.667 Y79.2598
G4 P20
M240
G4 P200
G1 X109.667 Y79.2598 E1
G4 P20
M240
G4 P200
G1 X128.333 Y79.2598
G4 P20
M240
G4 P200
G1 X130.333 Y79.2598 E1
G4 P20
M240
G4 P200
G1 X118 Y98.8897
G4 P20
M240
G4 P200
G1 X120 Y98.8897 E1
G4 P20
M240
G4 P200
G1 X97.3333 Y98.8897
G4 P20
M240
G4 P200
G1 X99.3333 Y98.8897 E1
G4 P20
M240
G4 P200
G1 X76.6667 Y98.8897
G4 P20
M240
G4 P200
G1 X78.6667 Y98.8897 E1
G4 P20
M240
G4 P200
G1 X56 Y98.8897
G4 P20
M240
G4 P200
G1 X58 Y98.8897 E1
G4 P20
M240
G4 P200
G1 X35.3333 Y98.8897
G4 P20
M240
G4 P200
G1 X37.3333 Y98.8897 E1
G4 P20
M240
G4 P200
G1 X25 Y118.52
G4 P20
M240
G4 P200
G1 X27 Y118.52 E1
G4 P20
M240
G4 P200
G1 X45.6667 Y118.52
G4 P20
M240
G4 P200
G1 X47.6667 Y118.52 E1
G4 P20
M240
G4 P200
G1 X66.3333 Y118.52
G4 P20
M240
G4 P200
G1 X68.3333 Y118.52 E1
G4 P20
M240
G4 P200
G1 X87 Y118.52
G4 P20
M240
G4 P200
G1 X89 Y118.52 E1
G4 P20
M240
G4 P200
G1 X107.667 Y118.52
G4 P20
M240
G4 P200
G1 X109.667 Y118.52 E1
G4 P20
M240
G4 P200
G1 X128.333 Y118.52
G4 P20
M240
G4 P200
G1 X130.333 Y118.52 E1
G4 P20
M240
G4 P200
G1 X118 Y138.15
G4 P20
M240
G4 P200
G1 X120 Y138.15 E1
G4 P20
M240
G4 P200
G1 X97.3333 Y138.15
G4 P20
M240
G4 P200
G1 X99.3333 Y138.15 E1
G4 P20
M240
G4 P200
G1 X76.6667 Y138.15
G4 P20
M240
G4 P200
G1 X78.6667 Y138.15 E1
G4 P20
M240
G4 P200
G1 X56 Y138.15
G4 P20
M240
G4 P200
G1 X58 Y138.15 E1
G4 P20
M240
G4 P200
G1 X35.3333 Y138.15
G4 P20
M240
G4 P200
G1 X37.3333 Y138.15 E1
G4 P20
M240
G4 P200
G1 X25 Y157.779
G4 P20
M240
G4 P200
G1 X27 Y157.779 E1
G4 P20
M240
G4 P200
