;FLAVOR: Reprap / Merlin
;Generated by Cell Spot welder automation SW
;X/Y tabel controller is based on Marlin FW with mod to M240 for welding
;Author: Karl Krisian Markman, Grenland Energy
 
G28 ; Home
;This file is set up to dwell before and after every spotweld. This dwell is set to P20

G1 X25 Y30
G4 P20
M240
G4 P200
G1 X27 Y30 E1
G4 P20
M240
G4 P200
G1 X45.6667 Y30
G4 P20
M240
G4 P200
G1 X47.6667 Y30 E1
G4 P20
M240
G4 P200
G1 X66.3333 Y30
G4 P20
M240
G4 P200
G1 X68.3333 Y30 E1
G4 P20
M240
G4 P200
G1 X87 Y30
G4 P20
M240
G4 P200
G1 X89 Y30 E1
G4 P20
M240
G4 P200
G1 X107.667 Y30
G4 P20
M240
G4 P200
G1 X109.667 Y30 E1
G4 P20
M240
G4 P200
G1 X128.333 Y30
G4 P20
M240
G4 P200
G1 X130.333 Y30 E1
G4 P20
M240
G4 P200
G1 X149 Y30
G4 P20
M240
G4 P200
G1 X151 Y30 E1
G4 P20
M240
G4 P200
G1 X138.667 Y49.6299
G4 P20
M240
G4 P200
G1 X140.667 Y49.6299 E1
G4 P20
M240
G4 P200
G1 X118 Y49.6299
G4 P20
M240
G4 P200
G1 X120 Y49.6299 E1
G4 P20
M240
G4 P200
G1 X97.3333 Y49.6299
G4 P20
M240
G4 P200
G1 X99.3333 Y49.6299 E1
G4 P20
M240
G4 P200
G1 X76.6667 Y49.6299
G4 P20
M240
G4 P200
G1 X78.6667 Y49.6299 E1
G4 P20
M240
G4 P200
G1 X56 Y49.6299
G4 P20
M240
G4 P200
G1 X58 Y49.6299 E1
G4 P20
M240
G4 P200
G1 X35.3333 Y49.6299
G4 P20
M240
G4 P200
G1 X37.3333 Y49.6299 E1
G4 P20
M240
G4 P200
G1 X25 Y69.2598
G4 P20
M240
G4 P200
G1 X27 Y69.2598 E1
G4 P20
M240
G4 P200
G1 X45.6667 Y69.2598
G4 P20
M240
G4 P200
G1 X47.6667 Y69.2598 E1
G4 P20
M240
G4 P200
G1 X66.3333 Y69.2598
G4 P20
M240
G4 P200
G1 X68.3333 Y69.2598 E1
G4 P20
M240
G4 P200
G1 X87 Y69.2598
G4 P20
M240
G4 P200
G1 X89 Y69.2598 E1
G4 P20
M240
G4 P200
G1 X107.667 Y69.2598
G4 P20
M240
G4 P200
G1 X109.667 Y69.2598 E1
G4 P20
M240
G4 P200
G1 X128.333 Y69.2598
G4 P20
M240
G4 P200
G1 X130.333 Y69.2598 E1
G4 P20
M240
G4 P200
G1 X149 Y69.2598
G4 P20
M240
G4 P200
G1 X151 Y69.2598 E1
G4 P20
M240
G4 P200
G1 X138.667 Y88.8897
G4 P20
M240
G4 P200
G1 X140.667 Y88.8897 E1
G4 P20
M240
G4 P200
G1 X118 Y88.8897
G4 P20
M240
G4 P200
G1 X120 Y88.8897 E1
G4 P20
M240
G4 P200
G1 X97.3333 Y88.8897
G4 P20
M240
G4 P200
G1 X99.3333 Y88.8897 E1
G4 P20
M240
G4 P200
G1 X76.6667 Y88.8897
G4 P20
M240
G4 P200
G1 X78.6667 Y88.8897 E1
G4 P20
M240
G4 P200
G1 X56 Y88.8897
G4 P20
M240
G4 P200
G1 X58 Y88.8897 E1
G4 P20
M240
G4 P200
G1 X35.3333 Y88.8897
G4 P20
M240
G4 P200
G1 X37.3333 Y88.8897 E1
G4 P20
M240
G4 P200
G1 X25 Y108.52
G4 P20
M240
G4 P200
G1 X27 Y108.52 E1
G4 P20
M240
G4 P200
G1 X45.6667 Y108.52
G4 P20
M240
G4 P200
G1 X47.6667 Y108.52 E1
G4 P20
M240
G4 P200
G1 X66.3333 Y108.52
G4 P20
M240
G4 P200
G1 X68.3333 Y108.52 E1
G4 P20
M240
G4 P200
G1 X87 Y108.52
G4 P20
M240
G4 P200
G1 X89 Y108.52 E1
G4 P20
M240
G4 P200
G1 X107.667 Y108.52
G4 P20
M240
G4 P200
G1 X109.667 Y108.52 E1
G4 P20
M240
G4 P200
G1 X128.333 Y108.52
G4 P20
M240
G4 P200
G1 X130.333 Y108.52 E1
G4 P20
M240
G4 P200
G1 X149 Y108.52
G4 P20
M240
G4 P200
G1 X151 Y108.52 E1
G4 P20
M240
G4 P200
G1 X138.667 Y128.15
G4 P20
M240
G4 P200
G1 X140.667 Y128.15 E1
G4 P20
M240
G4 P200
G1 X118 Y128.15
G4 P20
M240
G4 P200
G1 X120 Y128.15 E1
G4 P20
M240
G4 P200
G1 X97.3333 Y128.15
G4 P20
M240
G4 P200
G1 X99.3333 Y128.15 E1
G4 P20
M240
G4 P200
G1 X76.6667 Y128.15
G4 P20
M240
G4 P200
G1 X78.6667 Y128.15 E1
G4 P20
M240
G4 P200
G1 X56 Y128.15
G4 P20
M240
G4 P200
G1 X58 Y128.15 E1
G4 P20
M240
G4 P200
G1 X35.3333 Y128.15
G4 P20
M240
G4 P200
G1 X37.3333 Y128.15 E1
G4 P20
M240
G4 P200
G1 X25 Y147.779
G4 P20
M240
G4 P200
G1 X27 Y147.779 E1
G4 P20
M240
G4 P200
