;FLAVOR: Reprap / Merlin
;Generated by Cell Spot welder automation SW
;X/Y tabel controller is based on Marlin FW with mod to M240 for welding
;Author: Karl Krisian Markman, Grenland Energy
 
G28 ; Home
;This file is set up to dwell before and after every spotweld. This dwell is set to P20

G1 X25 Y34
G4 P20
M240
G4 P200
G1 X27 Y34 E1
G4 P20
M240
G4 P200
G1 X45.6667 Y34
G4 P20
M240
G4 P200
G1 X47.6667 Y34 E1
G4 P20
M240
G4 P200
G1 X66.3333 Y34
G4 P20
M240
G4 P200
G1 X68.3333 Y34 E1
G4 P20
M240
G4 P200
G1 X87 Y34
G4 P20
M240
G4 P200
G1 X89 Y34 E1
G4 P20
M240
G4 P200
G1 X107.667 Y34
G4 P20
M240
G4 P200
G1 X109.667 Y34 E1
G4 P20
M240
G4 P200
G1 X128.333 Y34
G4 P20
M240
G4 P200
G1 X130.333 Y34 E1
G4 P20
M240
G4 P200
G1 X149 Y34
G4 P20
M240
G4 P200
G1 X151 Y34 E1
G4 P20
M240
G4 P200
G1 X169.667 Y34
G4 P20
M240
G4 P200
G1 X171.667 Y34 E1
G4 P20
M240
G4 P200
G1 X190.333 Y34
G4 P20
M240
G4 P200
G1 X192.333 Y34 E1
G4 P20
M240
G4 P200
G1 X211 Y34
G4 P20
M240
G4 P200
G1 X213 Y34 E1
G4 P20
M240
G4 P200
G1 X231.667 Y34
G4 P20
M240
G4 P200
G1 X233.667 Y34 E1
G4 P20
M240
G4 P200
G1 X221.333 Y53.6299
G4 P20
M240
G4 P200
G1 X223.333 Y53.6299 E1
G4 P20
M240
G4 P200
G1 X200.667 Y53.6299
G4 P20
M240
G4 P200
G1 X202.667 Y53.6299 E1
G4 P20
M240
G4 P200
G1 X180 Y53.6299
G4 P20
M240
G4 P200
G1 X182 Y53.6299 E1
G4 P20
M240
G4 P200
G1 X159.333 Y53.6299
G4 P20
M240
G4 P200
G1 X161.333 Y53.6299 E1
G4 P20
M240
G4 P200
G1 X138.667 Y53.6299
G4 P20
M240
G4 P200
G1 X140.667 Y53.6299 E1
G4 P20
M240
G4 P200
G1 X118 Y53.6299
G4 P20
M240
G4 P200
G1 X120 Y53.6299 E1
G4 P20
M240
G4 P200
G1 X97.3334 Y53.6299
G4 P20
M240
G4 P200
G1 X99.3334 Y53.6299 E1
G4 P20
M240
G4 P200
G1 X76.6667 Y53.6299
G4 P20
M240
G4 P200
G1 X78.6667 Y53.6299 E1
G4 P20
M240
G4 P200
G1 X56 Y53.6299
G4 P20
M240
G4 P200
G1 X58 Y53.6299 E1
G4 P20
M240
G4 P200
G1 X35.3333 Y53.6299
G4 P20
M240
G4 P200
G1 X37.3333 Y53.6299 E1
G4 P20
M240
G4 P200
G1 X25 Y73.2598
G4 P20
M240
G4 P200
G1 X27 Y73.2598 E1
G4 P20
M240
G4 P200
G1 X45.6667 Y73.2598
G4 P20
M240
G4 P200
G1 X47.6667 Y73.2598 E1
G4 P20
M240
G4 P200
G1 X66.3333 Y73.2598
G4 P20
M240
G4 P200
G1 X68.3333 Y73.2598 E1
G4 P20
M240
G4 P200
G1 X87 Y73.2598
G4 P20
M240
G4 P200
G1 X89 Y73.2598 E1
G4 P20
M240
G4 P200
G1 X107.667 Y73.2598
G4 P20
M240
G4 P200
G1 X109.667 Y73.2598 E1
G4 P20
M240
G4 P200
G1 X128.333 Y73.2598
G4 P20
M240
G4 P200
G1 X130.333 Y73.2598 E1
G4 P20
M240
G4 P200
G1 X149 Y73.2598
G4 P20
M240
G4 P200
G1 X151 Y73.2598 E1
G4 P20
M240
G4 P200
G1 X169.667 Y73.2598
G4 P20
M240
G4 P200
G1 X171.667 Y73.2598 E1
G4 P20
M240
G4 P200
G1 X190.333 Y73.2598
G4 P20
M240
G4 P200
G1 X192.333 Y73.2598 E1
G4 P20
M240
G4 P200
G1 X211 Y73.2598
G4 P20
M240
G4 P200
G1 X213 Y73.2598 E1
G4 P20
M240
G4 P200
G1 X231.667 Y73.2598
G4 P20
M240
G4 P200
G1 X233.667 Y73.2598 E1
G4 P20
M240
G4 P200
G1 X221.333 Y92.8897
G4 P20
M240
G4 P200
G1 X223.333 Y92.8897 E1
G4 P20
M240
G4 P200
G1 X200.667 Y92.8897
G4 P20
M240
G4 P200
G1 X202.667 Y92.8897 E1
G4 P20
M240
G4 P200
G1 X180 Y92.8897
G4 P20
M240
G4 P200
G1 X182 Y92.8897 E1
G4 P20
M240
G4 P200
G1 X159.333 Y92.8897
G4 P20
M240
G4 P200
G1 X161.333 Y92.8897 E1
G4 P20
M240
G4 P200
G1 X138.667 Y92.8897
G4 P20
M240
G4 P200
G1 X140.667 Y92.8897 E1
G4 P20
M240
G4 P200
G1 X118 Y92.8897
G4 P20
M240
G4 P200
G1 X120 Y92.8897 E1
G4 P20
M240
G4 P200
G1 X97.3334 Y92.8897
G4 P20
M240
G4 P200
G1 X99.3334 Y92.8897 E1
G4 P20
M240
G4 P200
G1 X76.6667 Y92.8897
G4 P20
M240
G4 P200
G1 X78.6667 Y92.8897 E1
G4 P20
M240
G4 P200
G1 X56 Y92.8897
G4 P20
M240
G4 P200
G1 X58 Y92.8897 E1
G4 P20
M240
G4 P200
G1 X35.3333 Y92.8897
G4 P20
M240
G4 P200
G1 X37.3333 Y92.8897 E1
G4 P20
M240
G4 P200
G1 X25 Y112.52
G4 P20
M240
G4 P200
G1 X27 Y112.52 E1
G4 P20
M240
G4 P200
G1 X45.6667 Y112.52
G4 P20
M240
G4 P200
G1 X47.6667 Y112.52 E1
G4 P20
M240
G4 P200
G1 X66.3333 Y112.52
G4 P20
M240
G4 P200
G1 X68.3333 Y112.52 E1
G4 P20
M240
G4 P200
G1 X87 Y112.52
G4 P20
M240
G4 P200
G1 X89 Y112.52 E1
G4 P20
M240
G4 P200
G1 X107.667 Y112.52
G4 P20
M240
G4 P200
G1 X109.667 Y112.52 E1
G4 P20
M240
G4 P200
G1 X128.333 Y112.52
G4 P20
M240
G4 P200
G1 X130.333 Y112.52 E1
G4 P20
M240
G4 P200
G1 X149 Y112.52
G4 P20
M240
G4 P200
G1 X151 Y112.52 E1
G4 P20
M240
G4 P200
G1 X169.667 Y112.52
G4 P20
M240
G4 P200
G1 X171.667 Y112.52 E1
G4 P20
M240
G4 P200
G1 X190.333 Y112.52
G4 P20
M240
G4 P200
G1 X192.333 Y112.52 E1
G4 P20
M240
G4 P200
G1 X211 Y112.52
G4 P20
M240
G4 P200
G1 X213 Y112.52 E1
G4 P20
M240
G4 P200
G1 X231.667 Y112.52
G4 P20
M240
G4 P200
G1 X233.667 Y112.52 E1
G4 P20
M240
G4 P200
G1 X221.333 Y132.15
G4 P20
M240
G4 P200
G1 X223.333 Y132.15 E1
G4 P20
M240
G4 P200
G1 X200.667 Y132.15
G4 P20
M240
G4 P200
G1 X202.667 Y132.15 E1
G4 P20
M240
G4 P200
G1 X180 Y132.15
G4 P20
M240
G4 P200
G1 X182 Y132.15 E1
G4 P20
M240
G4 P200
G1 X159.333 Y132.15
G4 P20
M240
G4 P200
G1 X161.333 Y132.15 E1
G4 P20
M240
G4 P200
G1 X138.667 Y132.15
G4 P20
M240
G4 P200
G1 X140.667 Y132.15 E1
G4 P20
M240
G4 P200
G1 X118 Y132.15
G4 P20
M240
G4 P200
G1 X120 Y132.15 E1
G4 P20
M240
G4 P200
G1 X97.3334 Y132.15
G4 P20
M240
G4 P200
G1 X99.3334 Y132.15 E1
G4 P20
M240
G4 P200
G1 X76.6667 Y132.15
G4 P20
M240
G4 P200
G1 X78.6667 Y132.15 E1
G4 P20
M240
G4 P200
G1 X56 Y132.15
G4 P20
M240
G4 P200
G1 X58 Y132.15 E1
G4 P20
M240
G4 P200
G1 X35.3333 Y132.15
G4 P20
M240
G4 P200
G1 X37.3333 Y132.15 E1
G4 P20
M240
G4 P200
G1 X25 Y151.779
G4 P20
M240
G4 P200
G1 X27 Y151.779 E1
G4 P20
M240
G4 P200
G1 X45.6667 Y151.779
G4 P20
M240
G4 P200
G1 X47.6667 Y151.779 E1
G4 P20
M240
G4 P200
G1 X66.3333 Y151.779
G4 P20
M240
G4 P200
G1 X68.3333 Y151.779 E1
G4 P20
M240
G4 P200
G1 X87 Y151.779
G4 P20
M240
G4 P200
G1 X89 Y151.779 E1
G4 P20
M240
G4 P200
G1 X107.667 Y151.779
G4 P20
M240
G4 P200
G1 X109.667 Y151.779 E1
G4 P20
M240
G4 P200
G1 X128.333 Y151.779
G4 P20
M240
G4 P200
G1 X130.333 Y151.779 E1
G4 P20
M240
G4 P200
G1 X149 Y151.779
G4 P20
M240
G4 P200
G1 X151 Y151.779 E1
G4 P20
M240
G4 P200
G1 X169.667 Y151.779
G4 P20
M240
G4 P200
G1 X171.667 Y151.779 E1
G4 P20
M240
G4 P200
G1 X190.333 Y151.779
G4 P20
M240
G4 P200
G1 X192.333 Y151.779 E1
G4 P20
M240
G4 P200
G1 X211 Y151.779
G4 P20
M240
G4 P200
G1 X213 Y151.779 E1
G4 P20
M240
G4 P200
G1 X231.667 Y151.779
G4 P20
M240
G4 P200
G1 X233.667 Y151.779 E1
G4 P20
M240
G4 P200
G1 X221.333 Y171.409
G4 P20
M240
G4 P200
G1 X223.333 Y171.409 E1
G4 P20
M240
G4 P200
G1 X200.667 Y171.409
G4 P20
M240
G4 P200
G1 X202.667 Y171.409 E1
G4 P20
M240
G4 P200
G1 X180 Y171.409
G4 P20
M240
G4 P200
G1 X182 Y171.409 E1
G4 P20
M240
G4 P200
G1 X159.333 Y171.409
G4 P20
M240
G4 P200
G1 X161.333 Y171.409 E1
G4 P20
M240
G4 P200
G1 X138.667 Y171.409
G4 P20
M240
G4 P200
G1 X140.667 Y171.409 E1
G4 P20
M240
G4 P200
G1 X118 Y171.409
G4 P20
M240
G4 P200
G1 X120 Y171.409 E1
G4 P20
M240
G4 P200
G1 X97.3334 Y171.409
G4 P20
M240
G4 P200
G1 X99.3334 Y171.409 E1
G4 P20
M240
G4 P200
G1 X76.6667 Y171.409
G4 P20
M240
G4 P200
G1 X78.6667 Y171.409 E1
G4 P20
M240
G4 P200
G1 X56 Y171.409
G4 P20
M240
G4 P200
G1 X58 Y171.409 E1
G4 P20
M240
G4 P200
G1 X35.3333 Y171.409
G4 P20
M240
G4 P200
G1 X37.3333 Y171.409 E1
G4 P20
M240
G4 P200
G1 X25 Y191.039
G4 P20
M240
G4 P200
G1 X27 Y191.039 E1
G4 P20
M240
G4 P200
G1 X45.6667 Y191.039
G4 P20
M240
G4 P200
G1 X47.6667 Y191.039 E1
G4 P20
M240
G4 P200
G1 X66.3333 Y191.039
G4 P20
M240
G4 P200
G1 X68.3333 Y191.039 E1
G4 P20
M240
G4 P200
G1 X87 Y191.039
G4 P20
M240
G4 P200
G1 X89 Y191.039 E1
G4 P20
M240
G4 P200
G1 X107.667 Y191.039
G4 P20
M240
G4 P200
G1 X109.667 Y191.039 E1
G4 P20
M240
G4 P200
G1 X128.333 Y191.039
G4 P20
M240
G4 P200
G1 X130.333 Y191.039 E1
G4 P20
M240
G4 P200
G1 X149 Y191.039
G4 P20
M240
G4 P200
G1 X151 Y191.039 E1
G4 P20
M240
G4 P200
G1 X169.667 Y191.039
G4 P20
M240
G4 P200
G1 X171.667 Y191.039 E1
G4 P20
M240
G4 P200
G1 X190.333 Y191.039
G4 P20
M240
G4 P200
G1 X192.333 Y191.039 E1
G4 P20
M240
G4 P200
G1 X211 Y191.039
G4 P20
M240
G4 P200
G1 X213 Y191.039 E1
G4 P20
M240
G4 P200
G1 X231.667 Y191.039
G4 P20
M240
G4 P200
G1 X233.667 Y191.039 E1
G4 P20
M240
G4 P200
G1 X221.333 Y210.669
G4 P20
M240
G4 P200
G1 X223.333 Y210.669 E1
G4 P20
M240
G4 P200
G1 X200.667 Y210.669
G4 P20
M240
G4 P200
G1 X202.667 Y210.669 E1
G4 P20
M240
G4 P200
G1 X180 Y210.669
G4 P20
M240
G4 P200
G1 X182 Y210.669 E1
G4 P20
M240
G4 P200
G1 X159.333 Y210.669
G4 P20
M240
G4 P200
G1 X161.333 Y210.669 E1
G4 P20
M240
G4 P200
G1 X138.667 Y210.669
G4 P20
M240
G4 P200
G1 X140.667 Y210.669 E1
G4 P20
M240
G4 P200
G1 X118 Y210.669
G4 P20
M240
G4 P200
G1 X120 Y210.669 E1
G4 P20
M240
G4 P200
G1 X97.3334 Y210.669
G4 P20
M240
G4 P200
G1 X99.3334 Y210.669 E1
G4 P20
M240
G4 P200
G1 X76.6667 Y210.669
G4 P20
M240
G4 P200
G1 X78.6667 Y210.669 E1
G4 P20
M240
G4 P200
G1 X56 Y210.669
G4 P20
M240
G4 P200
G1 X58 Y210.669 E1
G4 P20
M240
G4 P200
G1 X35.3333 Y210.669
G4 P20
M240
G4 P200
G1 X37.3333 Y210.669 E1
G4 P20
M240
G4 P200
G1 X25 Y230.299
G4 P20
M240
G4 P200
G1 X27 Y230.299 E1
G4 P20
M240
G4 P200
