;FLAVOR: Reprap / Merlin
;Generated by Cell Spot welder automation SW
;X/Y tabel controller is based on Marlin FW with mod to M240 for welding
;Author: Karl Krisian Markman, Grenland Energy
 
G28 ; Home
;This file is set up to dwell before and after every spotweld. 

G1 X20 Y566
G4 P20
M240
G4 P200
G1 X22 Y566 E1
G4 P20
M240
G4 P200
G1 X40.66 Y566
G4 P20
M240
G4 P200
G1 X42.66 Y566 E1
G4 P20
M240
G4 P200
G1 X61.32 Y566
G4 P20
M240
G4 P200
G1 X63.32 Y566 E1
G4 P20
M240
G4 P200
G1 X81.98 Y566
G4 P20
M240
G4 P200
G1 X83.98 Y566 E1
G4 P20
M240
G4 P200
G1 X102.64 Y566
G4 P20
M240
G4 P200
G1 X104.64 Y566 E1
G4 P20
M240
G4 P200
G1 X123.3 Y566
G4 P20
M240
G4 P200
G1 X125.3 Y566 E1
G4 P20
M240
G4 P200
G1 X143.96 Y566
G4 P20
M240
G4 P200
G1 X145.96 Y566 E1
G4 P20
M240
G4 P200
G1 X164.62 Y566
G4 P20
M240
G4 P200
G1 X166.62 Y566 E1
G4 P20
M240
G4 P200
G1 X185.28 Y566
G4 P20
M240
G4 P200
G1 X187.28 Y566 E1
G4 P20
M240
G4 P200
G1 X205.94 Y566
G4 P20
M240
G4 P200
G1 X207.94 Y566 E1
G4 P20
M240
G4 P200
G1 X205.94 Y586.66
G4 P20
M240
G4 P200
G1 X207.94 Y586.66 E1
G4 P20
M240
G4 P200
G1 X185.28 Y586.66
G4 P20
M240
G4 P200
G1 X187.28 Y586.66 E1
G4 P20
M240
G4 P200
G1 X164.62 Y586.66
G4 P20
M240
G4 P200
G1 X166.62 Y586.66 E1
G4 P20
M240
G4 P200
G1 X143.96 Y586.66
G4 P20
M240
G4 P200
G1 X145.96 Y586.66 E1
G4 P20
M240
G4 P200
G1 X123.3 Y586.66
G4 P20
M240
G4 P200
G1 X125.3 Y586.66 E1
G4 P20
M240
G4 P200
G1 X102.64 Y586.66
G4 P20
M240
G4 P200
G1 X104.64 Y586.66 E1
G4 P20
M240
G4 P200
G1 X81.98 Y586.66
G4 P20
M240
G4 P200
G1 X83.98 Y586.66 E1
G4 P20
M240
G4 P200
G1 X61.32 Y586.66
G4 P20
M240
G4 P200
G1 X63.32 Y586.66 E1
G4 P20
M240
G4 P200
G1 X40.66 Y586.66
G4 P20
M240
G4 P200
G1 X42.66 Y586.66 E1
G4 P20
M240
G4 P200
G1 X20 Y586.66
G4 P20
M240
G4 P200
G1 X22 Y586.66 E1
G4 P20
M240
G4 P200
G1 X20 Y607.32
G4 P20
M240
G4 P200
G1 X22 Y607.32 E1
G4 P20
M240
G4 P200
G1 X40.66 Y607.32
G4 P20
M240
G4 P200
G1 X42.66 Y607.32 E1
G4 P20
M240
G4 P200
G1 X61.32 Y607.32
G4 P20
M240
G4 P200
G1 X63.32 Y607.32 E1
G4 P20
M240
G4 P200
G1 X81.98 Y607.32
G4 P20
M240
G4 P200
G1 X83.98 Y607.32 E1
G4 P20
M240
G4 P200
G1 X102.64 Y607.32
G4 P20
M240
G4 P200
G1 X104.64 Y607.32 E1
G4 P20
M240
G4 P200
G1 X123.3 Y607.32
G4 P20
M240
G4 P200
G1 X125.3 Y607.32 E1
G4 P20
M240
G4 P200
G1 X143.96 Y607.32
G4 P20
M240
G4 P200
G1 X145.96 Y607.32 E1
G4 P20
M240
G4 P200
G1 X164.62 Y607.32
G4 P20
M240
G4 P200
G1 X166.62 Y607.32 E1
G4 P20
M240
G4 P200
G1 X185.28 Y607.32
G4 P20
M240
G4 P200
G1 X187.28 Y607.32 E1
G4 P20
M240
G4 P200
G1 X205.94 Y607.32
G4 P20
M240
G4 P200
G1 X207.94 Y607.32 E1
G4 P20
M240
G4 P200
G1 X205.94 Y627.98
G4 P20
M240
G4 P200
G1 X207.94 Y627.98 E1
G4 P20
M240
G4 P200
G1 X185.28 Y627.98
G4 P20
M240
G4 P200
G1 X187.28 Y627.98 E1
G4 P20
M240
G4 P200
G1 X164.62 Y627.98
G4 P20
M240
G4 P200
G1 X166.62 Y627.98 E1
G4 P20
M240
G4 P200
G1 X143.96 Y627.98
G4 P20
M240
G4 P200
G1 X145.96 Y627.98 E1
G4 P20
M240
G4 P200
G1 X123.3 Y627.98
G4 P20
M240
G4 P200
G1 X125.3 Y627.98 E1
G4 P20
M240
G4 P200
G1 X102.64 Y627.98
G4 P20
M240
G4 P200
G1 X104.64 Y627.98 E1
G4 P20
M240
G4 P200
G1 X81.98 Y627.98
G4 P20
M240
G4 P200
G1 X83.98 Y627.98 E1
G4 P20
M240
G4 P200
G1 X61.32 Y627.98
G4 P20
M240
G4 P200
G1 X63.32 Y627.98 E1
G4 P20
M240
G4 P200
G1 X40.66 Y627.98
G4 P20
M240
G4 P200
G1 X42.66 Y627.98 E1
G4 P20
M240
G4 P200
G1 X20 Y627.98
G4 P20
M240
G4 P200
G1 X22 Y627.98 E1
G4 P20
M240
G4 P200
G1 X20 Y648.64
G4 P20
M240
G4 P200
G1 X22 Y648.64 E1
G4 P20
M240
G4 P200
G1 X40.66 Y648.64
G4 P20
M240
G4 P200
G1 X42.66 Y648.64 E1
G4 P20
M240
G4 P200
G1 X61.32 Y648.64
G4 P20
M240
G4 P200
G1 X63.32 Y648.64 E1
G4 P20
M240
G4 P200
G1 X81.98 Y648.64
G4 P20
M240
G4 P200
G1 X83.98 Y648.64 E1
G4 P20
M240
G4 P200
G1 X102.64 Y648.64
G4 P20
M240
G4 P200
G1 X104.64 Y648.64 E1
G4 P20
M240
G4 P200
G1 X123.3 Y648.64
G4 P20
M240
G4 P200
G1 X125.3 Y648.64 E1
G4 P20
M240
G4 P200
G1 X143.96 Y648.64
G4 P20
M240
G4 P200
G1 X145.96 Y648.64 E1
G4 P20
M240
G4 P200
G1 X164.62 Y648.64
G4 P20
M240
G4 P200
G1 X166.62 Y648.64 E1
G4 P20
M240
G4 P200
G1 X185.28 Y648.64
G4 P20
M240
G4 P200
G1 X187.28 Y648.64 E1
G4 P20
M240
G4 P200
G1 X205.94 Y648.64
G4 P20
M240
G4 P200
G1 X207.94 Y648.64 E1
G4 P20
M240
G4 P200
G1 X205.94 Y669.3
G4 P20
M240
G4 P200
G1 X207.94 Y669.3 E1
G4 P20
M240
G4 P200
G1 X185.28 Y669.3
G4 P20
M240
G4 P200
G1 X187.28 Y669.3 E1
G4 P20
M240
G4 P200
G1 X164.62 Y669.3
G4 P20
M240
G4 P200
G1 X166.62 Y669.3 E1
G4 P20
M240
G4 P200
G1 X143.96 Y669.3
G4 P20
M240
G4 P200
G1 X145.96 Y669.3 E1
G4 P20
M240
G4 P200
G1 X123.3 Y669.3
G4 P20
M240
G4 P200
G1 X125.3 Y669.3 E1
G4 P20
M240
G4 P200
G1 X102.64 Y669.3
G4 P20
M240
G4 P200
G1 X104.64 Y669.3 E1
G4 P20
M240
G4 P200
G1 X81.98 Y669.3
G4 P20
M240
G4 P200
G1 X83.98 Y669.3 E1
G4 P20
M240
G4 P200
G1 X61.32 Y669.3
G4 P20
M240
G4 P200
G1 X63.32 Y669.3 E1
G4 P20
M240
G4 P200
G1 X40.66 Y669.3
G4 P20
M240
G4 P200
G1 X42.66 Y669.3 E1
G4 P20
M240
G4 P200
G1 X20 Y669.3
G4 P20
M240
G4 P200
G1 X22 Y669.3 E1
G4 P20
M240
G4 P200
G1 X20 Y689.96
G4 P20
M240
G4 P200
G1 X22 Y689.96 E1
G4 P20
M240
G4 P200
G1 X40.66 Y689.96
G4 P20
M240
G4 P200
G1 X42.66 Y689.96 E1
G4 P20
M240
G4 P200
G1 X61.32 Y689.96
G4 P20
M240
G4 P200
G1 X63.32 Y689.96 E1
G4 P20
M240
G4 P200
G1 X81.98 Y689.96
G4 P20
M240
G4 P200
G1 X83.98 Y689.96 E1
G4 P20
M240
G4 P200
G1 X102.64 Y689.96
G4 P20
M240
G4 P200
G1 X104.64 Y689.96 E1
G4 P20
M240
G4 P200
G1 X123.3 Y689.96
G4 P20
M240
G4 P200
G1 X125.3 Y689.96 E1
G4 P20
M240
G4 P200
G1 X143.96 Y689.96
G4 P20
M240
G4 P200
G1 X145.96 Y689.96 E1
G4 P20
M240
G4 P200
G1 X164.62 Y689.96
G4 P20
M240
G4 P200
G1 X166.62 Y689.96 E1
G4 P20
M240
G4 P200
G1 X185.28 Y689.96
G4 P20
M240
G4 P200
G1 X187.28 Y689.96 E1
G4 P20
M240
G4 P200
G1 X205.94 Y689.96
G4 P20
M240
G4 P200
G1 X207.94 Y689.96 E1
G4 P20
M240
G4 P200
G1 X205.94 Y710.62
G4 P20
M240
G4 P200
G1 X207.94 Y710.62 E1
G4 P20
M240
G4 P200
G1 X185.28 Y710.62
G4 P20
M240
G4 P200
G1 X187.28 Y710.62 E1
G4 P20
M240
G4 P200
G1 X164.62 Y710.62
G4 P20
M240
G4 P200
G1 X166.62 Y710.62 E1
G4 P20
M240
G4 P200
G1 X143.96 Y710.62
G4 P20
M240
G4 P200
G1 X145.96 Y710.62 E1
G4 P20
M240
G4 P200
G1 X123.3 Y710.62
G4 P20
M240
G4 P200
G1 X125.3 Y710.62 E1
G4 P20
M240
G4 P200
G1 X102.64 Y710.62
G4 P20
M240
G4 P200
G1 X104.64 Y710.62 E1
G4 P20
M240
G4 P200
G1 X81.98 Y710.62
G4 P20
M240
G4 P200
G1 X83.98 Y710.62 E1
G4 P20
M240
G4 P200
G1 X61.32 Y710.62
G4 P20
M240
G4 P200
G1 X63.32 Y710.62 E1
G4 P20
M240
G4 P200
G1 X40.66 Y710.62
G4 P20
M240
G4 P200
G1 X42.66 Y710.62 E1
G4 P20
M240
G4 P200
G1 X20 Y710.62
G4 P20
M240
G4 P200
G1 X22 Y710.62 E1
G4 P20
M240
G4 P200
G1 X20 Y731.28
G4 P20
M240
G4 P200
G1 X22 Y731.28 E1
G4 P20
M240
G4 P200
G1 X40.66 Y731.28
G4 P20
M240
G4 P200
G1 X42.66 Y731.28 E1
G4 P20
M240
G4 P200
G1 X61.32 Y731.28
G4 P20
M240
G4 P200
G1 X63.32 Y731.28 E1
G4 P20
M240
G4 P200
G1 X81.98 Y731.28
G4 P20
M240
G4 P200
G1 X83.98 Y731.28 E1
G4 P20
M240
G4 P200
G1 X102.64 Y731.28
G4 P20
M240
G4 P200
G1 X104.64 Y731.28 E1
G4 P20
M240
G4 P200
G1 X123.3 Y731.28
G4 P20
M240
G4 P200
G1 X125.3 Y731.28 E1
G4 P20
M240
G4 P200
G1 X143.96 Y731.28
G4 P20
M240
G4 P200
G1 X145.96 Y731.28 E1
G4 P20
M240
G4 P200
G1 X164.62 Y731.28
G4 P20
M240
G4 P200
G1 X166.62 Y731.28 E1
G4 P20
M240
G4 P200
G1 X185.28 Y731.28
G4 P20
M240
G4 P200
G1 X187.28 Y731.28 E1
G4 P20
M240
G4 P200
G1 X205.94 Y731.28
G4 P20
M240
G4 P200
G1 X207.94 Y731.28 E1
G4 P20
M240
G4 P200
G1 X205.94 Y751.94
G4 P20
M240
G4 P200
G1 X207.94 Y751.94 E1
G4 P20
M240
G4 P200
G1 X185.28 Y751.94
G4 P20
M240
G4 P200
G1 X187.28 Y751.94 E1
G4 P20
M240
G4 P200
G1 X164.62 Y751.94
G4 P20
M240
G4 P200
G1 X166.62 Y751.94 E1
G4 P20
M240
G4 P200
G1 X143.96 Y751.94
G4 P20
M240
G4 P200
G1 X145.96 Y751.94 E1
G4 P20
M240
G4 P200
G1 X123.3 Y751.94
G4 P20
M240
G4 P200
G1 X125.3 Y751.94 E1
G4 P20
M240
G4 P200
G1 X102.64 Y751.94
G4 P20
M240
G4 P200
G1 X104.64 Y751.94 E1
G4 P20
M240
G4 P200
G1 X81.98 Y751.94
G4 P20
M240
G4 P200
G1 X83.98 Y751.94 E1
G4 P20
M240
G4 P200
G1 X61.32 Y751.94
G4 P20
M240
G4 P200
G1 X63.32 Y751.94 E1
G4 P20
M240
G4 P200
G1 X40.66 Y751.94
G4 P20
M240
G4 P200
G1 X42.66 Y751.94 E1
G4 P20
M240
G4 P200
G1 X20 Y751.94
G4 P20
M240
G4 P200
G1 X22 Y751.94 E1
G4 P20
M240
G4 P200
G1 X20 Y772.6
G4 P20
M240
G4 P200
G1 X22 Y772.6 E1
G4 P20
M240
G4 P200
