;FLAVOR: Reprap / Merlin
;Generated by Cell Spot welder automation SW
;X/Y tabel controller is based on Marlin FW with mod to M240 for welding
;Author: Karl Krisian Markman, Grenland Energy
 
G28 ; Home
;This file is set up to dwell before and after every spotweld. This dwell is set to P20

G1 X35 Y15 E10
G4 P20
M240
G4 P200
G1 X37 Y15
G4 P20
M240
G4 P200
G1 X55.6667 Y15 E10
G4 P20
M240
G4 P200
G1 X57.6667 Y15
G4 P20
M240
G4 P200
G1 X76.3334 Y15 E10
G4 P20
M240
G4 P200
G1 X78.3334 Y15
G4 P20
M240
G4 P200
G1 X97.0001 Y15 E10
G4 P20
M240
G4 P200
G1 X99.0001 Y15
G4 P20
M240
G4 P200
G1 X117.667 Y15 E10
G4 P20
M240
G4 P200
G1 X119.667 Y15
G4 P20
M240
G4 P200
G1 X138.334 Y15 E10
G4 P20
M240
G4 P200
G1 X140.334 Y15
G4 P20
M240
G4 P200
G1 X159 Y15 E10
G4 P20
M240
G4 P200
G1 X161 Y15
G4 P20
M240
G4 P200
G1 X179.667 Y15 E10
G4 P20
M240
G4 P200
G1 X181.667 Y15
G4 P20
M240
G4 P200
G1 X200.334 Y15 E10
G4 P20
M240
G4 P200
G1 X202.334 Y15
G4 P20
M240
G4 P200
G1 X221 Y15 E10
G4 P20
M240
G4 P200
G1 X223 Y15
G4 P20
M240
G4 P200
G1 X241.667 Y15 E10
G4 P20
M240
G4 P200
G1 X243.667 Y15
G4 P20
M240
G4 P200
G1 X262.334 Y15 E10
G4 P20
M240
G4 P200
G1 X264.334 Y15
G4 P20
M240
G4 P200
G1 X283 Y15 E10
G4 P20
M240
G4 P200
G1 X285 Y15
G4 P20
M240
G4 P200
G1 X303.667 Y15 E10
G4 P20
M240
G4 P200
G1 X305.667 Y15
G4 P20
M240
G4 P200
G1 X324.334 Y15 E10
G4 P20
M240
G4 P200
G1 X326.334 Y15
G4 P20
M240
G4 P200
G1 X345 Y15 E10
G4 P20
M240
G4 P200
G1 X347 Y15
G4 P20
M240
G4 P200
G1 X365.667 Y15 E10
G4 P20
M240
G4 P200
G1 X367.667 Y15
G4 P20
M240
G4 P200
G1 X386.334 Y15 E10
G4 P20
M240
G4 P200
G1 X388.334 Y15
G4 P20
M240
G4 P200
G1 X407.001 Y15 E10
G4 P20
M240
G4 P200
G1 X409.001 Y15
G4 P20
M240
G4 P200
G1 X427.667 Y15 E10
G4 P20
M240
G4 P200
G1 X429.667 Y15
G4 P20
M240
G4 P200
G1 X448.334 Y15 E10
G4 P20
M240
G4 P200
G1 X450.334 Y15
G4 P20
M240
G4 P200
G1 X469.001 Y15 E10
G4 P20
M240
G4 P200
G1 X471.001 Y15
G4 P20
M240
G4 P200
G1 X45.3334 Y34.6299 E10
G4 P20
M240
G4 P200
G1 X47.3334 Y34.6299
G4 P20
M240
G4 P200
G1 X66.0001 Y34.6299 E10
G4 P20
M240
G4 P200
G1 X68.0001 Y34.6299
G4 P20
M240
G4 P200
G1 X86.6668 Y34.6299 E10
G4 P20
M240
G4 P200
G1 X88.6668 Y34.6299
G4 P20
M240
G4 P200
G1 X107.333 Y34.6299 E10
G4 P20
M240
G4 P200
G1 X109.333 Y34.6299
G4 P20
M240
G4 P200
G1 X128 Y34.6299 E10
G4 P20
M240
G4 P200
G1 X130 Y34.6299
G4 P20
M240
G4 P200
G1 X148.667 Y34.6299 E10
G4 P20
M240
G4 P200
G1 X150.667 Y34.6299
G4 P20
M240
G4 P200
G1 X169.334 Y34.6299 E10
G4 P20
M240
G4 P200
G1 X171.334 Y34.6299
G4 P20
M240
G4 P200
G1 X190 Y34.6299 E10
G4 P20
M240
G4 P200
G1 X192 Y34.6299
G4 P20
M240
G4 P200
G1 X210.667 Y34.6299 E10
G4 P20
M240
G4 P200
G1 X212.667 Y34.6299
G4 P20
M240
G4 P200
G1 X231.334 Y34.6299 E10
G4 P20
M240
G4 P200
G1 X233.334 Y34.6299
G4 P20
M240
G4 P200
G1 X252 Y34.6299 E10
G4 P20
M240
G4 P200
G1 X254 Y34.6299
G4 P20
M240
G4 P200
G1 X272.667 Y34.6299 E10
G4 P20
M240
G4 P200
G1 X274.667 Y34.6299
G4 P20
M240
G4 P200
G1 X293.334 Y34.6299 E10
G4 P20
M240
G4 P200
G1 X295.334 Y34.6299
G4 P20
M240
G4 P200
G1 X314 Y34.6299 E10
G4 P20
M240
G4 P200
G1 X316 Y34.6299
G4 P20
M240
G4 P200
G1 X334.667 Y34.6299 E10
G4 P20
M240
G4 P200
G1 X336.667 Y34.6299
G4 P20
M240
G4 P200
G1 X355.334 Y34.6299 E10
G4 P20
M240
G4 P200
G1 X357.334 Y34.6299
G4 P20
M240
G4 P200
G1 X376 Y34.6299 E10
G4 P20
M240
G4 P200
G1 X378 Y34.6299
G4 P20
M240
G4 P200
G1 X396.667 Y34.6299 E10
G4 P20
M240
G4 P200
G1 X398.667 Y34.6299
G4 P20
M240
G4 P200
G1 X417.334 Y34.6299 E10
G4 P20
M240
G4 P200
G1 X419.334 Y34.6299
G4 P20
M240
G4 P200
G1 X438.001 Y34.6299 E10
G4 P20
M240
G4 P200
G1 X440.001 Y34.6299
G4 P20
M240
G4 P200
G1 X458.667 Y34.6299 E10
G4 P20
M240
G4 P200
G1 X460.667 Y34.6299
G4 P20
M240
G4 P200
G1 X35 Y54.2599 E10
G4 P20
M240
G4 P200
G1 X37 Y54.2599
G4 P20
M240
G4 P200
G1 X55.6667 Y54.2599 E10
G4 P20
M240
G4 P200
G1 X57.6667 Y54.2599
G4 P20
M240
G4 P200
G1 X76.3334 Y54.2599 E10
G4 P20
M240
G4 P200
G1 X78.3334 Y54.2599
G4 P20
M240
G4 P200
G1 X97.0001 Y54.2599 E10
G4 P20
M240
G4 P200
G1 X99.0001 Y54.2599
G4 P20
M240
G4 P200
G1 X117.667 Y54.2599 E10
G4 P20
M240
G4 P200
G1 X119.667 Y54.2599
G4 P20
M240
G4 P200
G1 X138.334 Y54.2599 E10
G4 P20
M240
G4 P200
G1 X140.334 Y54.2599
G4 P20
M240
G4 P200
G1 X159 Y54.2599 E10
G4 P20
M240
G4 P200
G1 X161 Y54.2599
G4 P20
M240
G4 P200
G1 X179.667 Y54.2599 E10
G4 P20
M240
G4 P200
G1 X181.667 Y54.2599
G4 P20
M240
G4 P200
G1 X200.334 Y54.2599 E10
G4 P20
M240
G4 P200
G1 X202.334 Y54.2599
G4 P20
M240
G4 P200
G1 X221 Y54.2599 E10
G4 P20
M240
G4 P200
G1 X223 Y54.2599
G4 P20
M240
G4 P200
G1 X241.667 Y54.2599 E10
G4 P20
M240
G4 P200
G1 X243.667 Y54.2599
G4 P20
M240
G4 P200
G1 X262.334 Y54.2599 E10
G4 P20
M240
G4 P200
G1 X264.334 Y54.2599
G4 P20
M240
G4 P200
G1 X283 Y54.2599 E10
G4 P20
M240
G4 P200
G1 X285 Y54.2599
G4 P20
M240
G4 P200
G1 X303.667 Y54.2599 E10
G4 P20
M240
G4 P200
G1 X305.667 Y54.2599
G4 P20
M240
G4 P200
G1 X324.334 Y54.2599 E10
G4 P20
M240
G4 P200
G1 X326.334 Y54.2599
G4 P20
M240
G4 P200
G1 X345 Y54.2599 E10
G4 P20
M240
G4 P200
G1 X347 Y54.2599
G4 P20
M240
G4 P200
G1 X365.667 Y54.2599 E10
G4 P20
M240
G4 P200
G1 X367.667 Y54.2599
G4 P20
M240
G4 P200
G1 X386.334 Y54.2599 E10
G4 P20
M240
G4 P200
G1 X388.334 Y54.2599
G4 P20
M240
G4 P200
G1 X407.001 Y54.2599 E10
G4 P20
M240
G4 P200
G1 X409.001 Y54.2599
G4 P20
M240
G4 P200
G1 X427.667 Y54.2599 E10
G4 P20
M240
G4 P200
G1 X429.667 Y54.2599
G4 P20
M240
G4 P200
G1 X448.334 Y54.2599 E10
G4 P20
M240
G4 P200
G1 X450.334 Y54.2599
G4 P20
M240
G4 P200
G1 X469.001 Y54.2599 E10
G4 P20
M240
G4 P200
G1 X471.001 Y54.2599
G4 P20
M240
G4 P200
G1 X45.3334 Y73.8898 E10
G4 P20
M240
G4 P200
G1 X47.3334 Y73.8898
G4 P20
M240
G4 P200
G1 X66.0001 Y73.8898 E10
G4 P20
M240
G4 P200
G1 X68.0001 Y73.8898
G4 P20
M240
G4 P200
G1 X86.6668 Y73.8898 E10
G4 P20
M240
G4 P200
G1 X88.6668 Y73.8898
G4 P20
M240
G4 P200
G1 X107.333 Y73.8898 E10
G4 P20
M240
G4 P200
G1 X109.333 Y73.8898
G4 P20
M240
G4 P200
G1 X128 Y73.8898 E10
G4 P20
M240
G4 P200
G1 X130 Y73.8898
G4 P20
M240
G4 P200
G1 X148.667 Y73.8898 E10
G4 P20
M240
G4 P200
G1 X150.667 Y73.8898
G4 P20
M240
G4 P200
G1 X169.334 Y73.8898 E10
G4 P20
M240
G4 P200
G1 X171.334 Y73.8898
G4 P20
M240
G4 P200
G1 X190 Y73.8898 E10
G4 P20
M240
G4 P200
G1 X192 Y73.8898
G4 P20
M240
G4 P200
G1 X210.667 Y73.8898 E10
G4 P20
M240
G4 P200
G1 X212.667 Y73.8898
G4 P20
M240
G4 P200
G1 X231.334 Y73.8898 E10
G4 P20
M240
G4 P200
G1 X233.334 Y73.8898
G4 P20
M240
G4 P200
G1 X252 Y73.8898 E10
G4 P20
M240
G4 P200
G1 X254 Y73.8898
G4 P20
M240
G4 P200
G1 X272.667 Y73.8898 E10
G4 P20
M240
G4 P200
G1 X274.667 Y73.8898
G4 P20
M240
G4 P200
G1 X293.334 Y73.8898 E10
G4 P20
M240
G4 P200
G1 X295.334 Y73.8898
G4 P20
M240
G4 P200
G1 X314 Y73.8898 E10
G4 P20
M240
G4 P200
G1 X316 Y73.8898
G4 P20
M240
G4 P200
G1 X334.667 Y73.8898 E10
G4 P20
M240
G4 P200
G1 X336.667 Y73.8898
G4 P20
M240
G4 P200
G1 X355.334 Y73.8898 E10
G4 P20
M240
G4 P200
G1 X357.334 Y73.8898
G4 P20
M240
G4 P200
G1 X376 Y73.8898 E10
G4 P20
M240
G4 P200
G1 X378 Y73.8898
G4 P20
M240
G4 P200
G1 X396.667 Y73.8898 E10
G4 P20
M240
G4 P200
G1 X398.667 Y73.8898
G4 P20
M240
G4 P200
G1 X417.334 Y73.8898 E10
G4 P20
M240
G4 P200
G1 X419.334 Y73.8898
G4 P20
M240
G4 P200
G1 X438.001 Y73.8898 E10
G4 P20
M240
G4 P200
G1 X440.001 Y73.8898
G4 P20
M240
G4 P200
G1 X458.667 Y73.8898 E10
G4 P20
M240
G4 P200
G1 X460.667 Y73.8898
G4 P20
M240
G4 P200
G1 X35 Y93.5197 E10
G4 P20
M240
G4 P200
G1 X37 Y93.5197
G4 P20
M240
G4 P200
G1 X55.6667 Y93.5197 E10
G4 P20
M240
G4 P200
G1 X57.6667 Y93.5197
G4 P20
M240
G4 P200
G1 X76.3334 Y93.5197 E10
G4 P20
M240
G4 P200
G1 X78.3334 Y93.5197
G4 P20
M240
G4 P200
G1 X97.0001 Y93.5197 E10
G4 P20
M240
G4 P200
G1 X99.0001 Y93.5197
G4 P20
M240
G4 P200
G1 X117.667 Y93.5197 E10
G4 P20
M240
G4 P200
G1 X119.667 Y93.5197
G4 P20
M240
G4 P200
G1 X138.334 Y93.5197 E10
G4 P20
M240
G4 P200
G1 X140.334 Y93.5197
G4 P20
M240
G4 P200
G1 X159 Y93.5197 E10
G4 P20
M240
G4 P200
G1 X161 Y93.5197
G4 P20
M240
G4 P200
G1 X179.667 Y93.5197 E10
G4 P20
M240
G4 P200
G1 X181.667 Y93.5197
G4 P20
M240
G4 P200
G1 X200.334 Y93.5197 E10
G4 P20
M240
G4 P200
G1 X202.334 Y93.5197
G4 P20
M240
G4 P200
G1 X221 Y93.5197 E10
G4 P20
M240
G4 P200
G1 X223 Y93.5197
G4 P20
M240
G4 P200
G1 X241.667 Y93.5197 E10
G4 P20
M240
G4 P200
G1 X243.667 Y93.5197
G4 P20
M240
G4 P200
G1 X262.334 Y93.5197 E10
G4 P20
M240
G4 P200
G1 X264.334 Y93.5197
G4 P20
M240
G4 P200
G1 X283 Y93.5197 E10
G4 P20
M240
G4 P200
G1 X285 Y93.5197
G4 P20
M240
G4 P200
G1 X303.667 Y93.5197 E10
G4 P20
M240
G4 P200
G1 X305.667 Y93.5197
G4 P20
M240
G4 P200
G1 X324.334 Y93.5197 E10
G4 P20
M240
G4 P200
G1 X326.334 Y93.5197
G4 P20
M240
G4 P200
G1 X345 Y93.5197 E10
G4 P20
M240
G4 P200
G1 X347 Y93.5197
G4 P20
M240
G4 P200
G1 X365.667 Y93.5197 E10
G4 P20
M240
G4 P200
G1 X367.667 Y93.5197
G4 P20
M240
G4 P200
G1 X386.334 Y93.5197 E10
G4 P20
M240
G4 P200
G1 X388.334 Y93.5197
G4 P20
M240
G4 P200
G1 X407.001 Y93.5197 E10
G4 P20
M240
G4 P200
G1 X409.001 Y93.5197
G4 P20
M240
G4 P200
G1 X427.667 Y93.5197 E10
G4 P20
M240
G4 P200
G1 X429.667 Y93.5197
G4 P20
M240
G4 P200
G1 X448.334 Y93.5197 E10
G4 P20
M240
G4 P200
G1 X450.334 Y93.5197
G4 P20
M240
G4 P200
G1 X469.001 Y93.5197 E10
G4 P20
M240
G4 P200
G1 X471.001 Y93.5197
G4 P20
M240
G4 P200
G1 X45.3334 Y113.15 E10
G4 P20
M240
G4 P200
G1 X47.3334 Y113.15
G4 P20
M240
G4 P200
G1 X66.0001 Y113.15 E10
G4 P20
M240
G4 P200
G1 X68.0001 Y113.15
G4 P20
M240
G4 P200
G1 X86.6668 Y113.15 E10
G4 P20
M240
G4 P200
G1 X88.6668 Y113.15
G4 P20
M240
G4 P200
G1 X107.333 Y113.15 E10
G4 P20
M240
G4 P200
G1 X109.333 Y113.15
G4 P20
M240
G4 P200
G1 X128 Y113.15 E10
G4 P20
M240
G4 P200
G1 X130 Y113.15
G4 P20
M240
G4 P200
G1 X148.667 Y113.15 E10
G4 P20
M240
G4 P200
G1 X150.667 Y113.15
G4 P20
M240
G4 P200
G1 X169.334 Y113.15 E10
G4 P20
M240
G4 P200
G1 X171.334 Y113.15
G4 P20
M240
G4 P200
G1 X190 Y113.15 E10
G4 P20
M240
G4 P200
G1 X192 Y113.15
G4 P20
M240
G4 P200
G1 X210.667 Y113.15 E10
G4 P20
M240
G4 P200
G1 X212.667 Y113.15
G4 P20
M240
G4 P200
G1 X231.334 Y113.15 E10
G4 P20
M240
G4 P200
G1 X233.334 Y113.15
G4 P20
M240
G4 P200
G1 X252 Y113.15 E10
G4 P20
M240
G4 P200
G1 X254 Y113.15
G4 P20
M240
G4 P200
G1 X272.667 Y113.15 E10
G4 P20
M240
G4 P200
G1 X274.667 Y113.15
G4 P20
M240
G4 P200
G1 X293.334 Y113.15 E10
G4 P20
M240
G4 P200
G1 X295.334 Y113.15
G4 P20
M240
G4 P200
G1 X314 Y113.15 E10
G4 P20
M240
G4 P200
G1 X316 Y113.15
G4 P20
M240
G4 P200
G1 X334.667 Y113.15 E10
G4 P20
M240
G4 P200
G1 X336.667 Y113.15
G4 P20
M240
G4 P200
G1 X355.334 Y113.15 E10
G4 P20
M240
G4 P200
G1 X357.334 Y113.15
G4 P20
M240
G4 P200
G1 X376 Y113.15 E10
G4 P20
M240
G4 P200
G1 X378 Y113.15
G4 P20
M240
G4 P200
G1 X396.667 Y113.15 E10
G4 P20
M240
G4 P200
G1 X398.667 Y113.15
G4 P20
M240
G4 P200
G1 X417.334 Y113.15 E10
G4 P20
M240
G4 P200
G1 X419.334 Y113.15
G4 P20
M240
G4 P200
G1 X438.001 Y113.15 E10
G4 P20
M240
G4 P200
G1 X440.001 Y113.15
G4 P20
M240
G4 P200
G1 X458.667 Y113.15 E10
G4 P20
M240
G4 P200
G1 X460.667 Y113.15
G4 P20
M240
G4 P200
G1 X35 Y132.78 E10
G4 P20
M240
G4 P200
G1 X37 Y132.78
G4 P20
M240
G4 P200
G1 X55.6667 Y132.78 E10
G4 P20
M240
G4 P200
G1 X57.6667 Y132.78
G4 P20
M240
G4 P200
G1 X76.3334 Y132.78 E10
G4 P20
M240
G4 P200
G1 X78.3334 Y132.78
G4 P20
M240
G4 P200
G1 X97.0001 Y132.78 E10
G4 P20
M240
G4 P200
G1 X99.0001 Y132.78
G4 P20
M240
G4 P200
G1 X117.667 Y132.78 E10
G4 P20
M240
G4 P200
G1 X119.667 Y132.78
G4 P20
M240
G4 P200
G1 X138.334 Y132.78 E10
G4 P20
M240
G4 P200
G1 X140.334 Y132.78
G4 P20
M240
G4 P200
G1 X159 Y132.78 E10
G4 P20
M240
G4 P200
G1 X161 Y132.78
G4 P20
M240
G4 P200
G1 X179.667 Y132.78 E10
G4 P20
M240
G4 P200
G1 X181.667 Y132.78
G4 P20
M240
G4 P200
G1 X200.334 Y132.78 E10
G4 P20
M240
G4 P200
G1 X202.334 Y132.78
G4 P20
M240
G4 P200
G1 X221 Y132.78 E10
G4 P20
M240
G4 P200
G1 X223 Y132.78
G4 P20
M240
G4 P200
G1 X241.667 Y132.78 E10
G4 P20
M240
G4 P200
G1 X243.667 Y132.78
G4 P20
M240
G4 P200
G1 X262.334 Y132.78 E10
G4 P20
M240
G4 P200
G1 X264.334 Y132.78
G4 P20
M240
G4 P200
G1 X283 Y132.78 E10
G4 P20
M240
G4 P200
G1 X285 Y132.78
G4 P20
M240
G4 P200
G1 X303.667 Y132.78 E10
G4 P20
M240
G4 P200
G1 X305.667 Y132.78
G4 P20
M240
G4 P200
G1 X324.334 Y132.78 E10
G4 P20
M240
G4 P200
G1 X326.334 Y132.78
G4 P20
M240
G4 P200
G1 X345 Y132.78 E10
G4 P20
M240
G4 P200
G1 X347 Y132.78
G4 P20
M240
G4 P200
G1 X365.667 Y132.78 E10
G4 P20
M240
G4 P200
G1 X367.667 Y132.78
G4 P20
M240
G4 P200
G1 X386.334 Y132.78 E10
G4 P20
M240
G4 P200
G1 X388.334 Y132.78
G4 P20
M240
G4 P200
G1 X407.001 Y132.78 E10
G4 P20
M240
G4 P200
G1 X409.001 Y132.78
G4 P20
M240
G4 P200
G1 X427.667 Y132.78 E10
G4 P20
M240
G4 P200
G1 X429.667 Y132.78
G4 P20
M240
G4 P200
G1 X448.334 Y132.78 E10
G4 P20
M240
G4 P200
G1 X450.334 Y132.78
G4 P20
M240
G4 P200
G1 X469.001 Y132.78 E10
G4 P20
M240
G4 P200
G1 X471.001 Y132.78
G4 P20
M240
G4 P200
G1 X45.3334 Y152.41 E10
G4 P20
M240
G4 P200
G1 X47.3334 Y152.41
G4 P20
M240
G4 P200
G1 X66.0001 Y152.41 E10
G4 P20
M240
G4 P200
G1 X68.0001 Y152.41
G4 P20
M240
G4 P200
G1 X86.6668 Y152.41 E10
G4 P20
M240
G4 P200
G1 X88.6668 Y152.41
G4 P20
M240
G4 P200
G1 X107.333 Y152.41 E10
G4 P20
M240
G4 P200
G1 X109.333 Y152.41
G4 P20
M240
G4 P200
G1 X128 Y152.41 E10
G4 P20
M240
G4 P200
G1 X130 Y152.41
G4 P20
M240
G4 P200
G1 X148.667 Y152.41 E10
G4 P20
M240
G4 P200
G1 X150.667 Y152.41
G4 P20
M240
G4 P200
G1 X169.334 Y152.41 E10
G4 P20
M240
G4 P200
G1 X171.334 Y152.41
G4 P20
M240
G4 P200
G1 X190 Y152.41 E10
G4 P20
M240
G4 P200
G1 X192 Y152.41
G4 P20
M240
G4 P200
G1 X210.667 Y152.41 E10
G4 P20
M240
G4 P200
G1 X212.667 Y152.41
G4 P20
M240
G4 P200
G1 X231.334 Y152.41 E10
G4 P20
M240
G4 P200
G1 X233.334 Y152.41
G4 P20
M240
G4 P200
G1 X252 Y152.41 E10
G4 P20
M240
G4 P200
G1 X254 Y152.41
G4 P20
M240
G4 P200
G1 X272.667 Y152.41 E10
G4 P20
M240
G4 P200
G1 X274.667 Y152.41
G4 P20
M240
G4 P200
G1 X293.334 Y152.41 E10
G4 P20
M240
G4 P200
G1 X295.334 Y152.41
G4 P20
M240
G4 P200
G1 X314 Y152.41 E10
G4 P20
M240
G4 P200
G1 X316 Y152.41
G4 P20
M240
G4 P200
G1 X334.667 Y152.41 E10
G4 P20
M240
G4 P200
G1 X336.667 Y152.41
G4 P20
M240
G4 P200
G1 X355.334 Y152.41 E10
G4 P20
M240
G4 P200
G1 X357.334 Y152.41
G4 P20
M240
G4 P200
G1 X376 Y152.41 E10
G4 P20
M240
G4 P200
G1 X378 Y152.41
G4 P20
M240
G4 P200
G1 X396.667 Y152.41 E10
G4 P20
M240
G4 P200
G1 X398.667 Y152.41
G4 P20
M240
G4 P200
G1 X417.334 Y152.41 E10
G4 P20
M240
G4 P200
G1 X419.334 Y152.41
G4 P20
M240
G4 P200
G1 X438.001 Y152.41 E10
G4 P20
M240
G4 P200
G1 X440.001 Y152.41
G4 P20
M240
G4 P200
G1 X458.667 Y152.41 E10
G4 P20
M240
G4 P200
G1 X460.667 Y152.41
G4 P20
M240
G4 P200
G1 X35 Y172.04 E10
G4 P20
M240
G4 P200
G1 X37 Y172.04
G4 P20
M240
G4 P200
G1 X55.6667 Y172.04 E10
G4 P20
M240
G4 P200
G1 X57.6667 Y172.04
G4 P20
M240
G4 P200
G1 X76.3334 Y172.04 E10
G4 P20
M240
G4 P200
G1 X78.3334 Y172.04
G4 P20
M240
G4 P200
G1 X97.0001 Y172.04 E10
G4 P20
M240
G4 P200
G1 X99.0001 Y172.04
G4 P20
M240
G4 P200
G1 X117.667 Y172.04 E10
G4 P20
M240
G4 P200
G1 X119.667 Y172.04
G4 P20
M240
G4 P200
G1 X138.334 Y172.04 E10
G4 P20
M240
G4 P200
G1 X140.334 Y172.04
G4 P20
M240
G4 P200
G1 X159 Y172.04 E10
G4 P20
M240
G4 P200
G1 X161 Y172.04
G4 P20
M240
G4 P200
G1 X179.667 Y172.04 E10
G4 P20
M240
G4 P200
G1 X181.667 Y172.04
G4 P20
M240
G4 P200
G1 X200.334 Y172.04 E10
G4 P20
M240
G4 P200
G1 X202.334 Y172.04
G4 P20
M240
G4 P200
G1 X221 Y172.04 E10
G4 P20
M240
G4 P200
G1 X223 Y172.04
G4 P20
M240
G4 P200
G1 X241.667 Y172.04 E10
G4 P20
M240
G4 P200
G1 X243.667 Y172.04
G4 P20
M240
G4 P200
G1 X262.334 Y172.04 E10
G4 P20
M240
G4 P200
G1 X264.334 Y172.04
G4 P20
M240
G4 P200
G1 X283 Y172.04 E10
G4 P20
M240
G4 P200
G1 X285 Y172.04
G4 P20
M240
G4 P200
G1 X303.667 Y172.04 E10
G4 P20
M240
G4 P200
G1 X305.667 Y172.04
G4 P20
M240
G4 P200
G1 X324.334 Y172.04 E10
G4 P20
M240
G4 P200
G1 X326.334 Y172.04
G4 P20
M240
G4 P200
G1 X345 Y172.04 E10
G4 P20
M240
G4 P200
G1 X347 Y172.04
G4 P20
M240
G4 P200
G1 X365.667 Y172.04 E10
G4 P20
M240
G4 P200
G1 X367.667 Y172.04
G4 P20
M240
G4 P200
G1 X386.334 Y172.04 E10
G4 P20
M240
G4 P200
G1 X388.334 Y172.04
G4 P20
M240
G4 P200
G1 X407.001 Y172.04 E10
G4 P20
M240
G4 P200
G1 X409.001 Y172.04
G4 P20
M240
G4 P200
G1 X427.667 Y172.04 E10
G4 P20
M240
