;FLAVOR: Reprap / Merlin
;Generated by Cell Spot welder automation SW
;X/Y tabel controller is based on Marlin FW with mod to M240 for welding
;Author: Karl Krisian Markman, Grenland Energy
 
G28 ; Home
;This file is set up to dwell before and after every spotweld. This dwell is set to P20

G1 X20 Y30
G4 P20
M240
G4 P200
G1 X22 Y30 E1
G4 P20
M240
G4 P200
G1 X40.6667 Y30
G4 P20
M240
G4 P200
G1 X42.6667 Y30 E1
G4 P20
M240
G4 P200
G1 X61.3333 Y30
G4 P20
M240
G4 P200
G1 X63.3333 Y30 E1
G4 P20
M240
G4 P200
G1 X82 Y30
G4 P20
M240
G4 P200
G1 X84 Y30 E1
G4 P20
M240
G4 P200
G1 X102.667 Y30
G4 P20
M240
G4 P200
G1 X104.667 Y30 E1
G4 P20
M240
G4 P200
G1 X123.333 Y30
G4 P20
M240
G4 P200
G1 X125.333 Y30 E1
G4 P20
M240
G4 P200
G1 X144 Y30
G4 P20
M240
G4 P200
G1 X146 Y30 E1
G4 P20
M240
G4 P200
G1 X164.667 Y30
G4 P20
M240
G4 P200
G1 X166.667 Y30 E1
G4 P20
M240
G4 P200
G1 X185.333 Y30
G4 P20
M240
G4 P200
G1 X187.333 Y30 E1
G4 P20
M240
G4 P200
G1 X206 Y30
G4 P20
M240
G4 P200
G1 X208 Y30 E1
G4 P20
M240
G4 P200
G1 X226.667 Y30
G4 P20
M240
G4 P200
G1 X228.667 Y30 E1
G4 P20
M240
G4 P200
G1 X216.333 Y49.6299
G4 P20
M240
G4 P200
G1 X218.333 Y49.6299 E1
G4 P20
M240
G4 P200
G1 X195.667 Y49.6299
G4 P20
M240
G4 P200
G1 X197.667 Y49.6299 E1
G4 P20
M240
G4 P200
G1 X175 Y49.6299
G4 P20
M240
G4 P200
G1 X177 Y49.6299 E1
G4 P20
M240
G4 P200
G1 X154.333 Y49.6299
G4 P20
M240
G4 P200
G1 X156.333 Y49.6299 E1
G4 P20
M240
G4 P200
G1 X133.667 Y49.6299
G4 P20
M240
G4 P200
G1 X135.667 Y49.6299 E1
G4 P20
M240
G4 P200
G1 X113 Y49.6299
G4 P20
M240
G4 P200
G1 X115 Y49.6299 E1
G4 P20
M240
G4 P200
G1 X92.3334 Y49.6299
G4 P20
M240
G4 P200
G1 X94.3334 Y49.6299 E1
G4 P20
M240
G4 P200
G1 X71.6667 Y49.6299
G4 P20
M240
G4 P200
G1 X73.6667 Y49.6299 E1
G4 P20
M240
G4 P200
G1 X51 Y49.6299
G4 P20
M240
G4 P200
G1 X53 Y49.6299 E1
G4 P20
M240
G4 P200
G1 X30.3333 Y49.6299
G4 P20
M240
G4 P200
G1 X32.3333 Y49.6299 E1
G4 P20
M240
G4 P200
G1 X20 Y69.2598
G4 P20
M240
G4 P200
G1 X22 Y69.2598 E1
G4 P20
M240
G4 P200
G1 X40.6667 Y69.2598
G4 P20
M240
G4 P200
G1 X42.6667 Y69.2598 E1
G4 P20
M240
G4 P200
G1 X61.3333 Y69.2598
G4 P20
M240
G4 P200
G1 X63.3333 Y69.2598 E1
G4 P20
M240
G4 P200
G1 X82 Y69.2598
G4 P20
M240
G4 P200
G1 X84 Y69.2598 E1
G4 P20
M240
G4 P200
G1 X102.667 Y69.2598
G4 P20
M240
G4 P200
G1 X104.667 Y69.2598 E1
G4 P20
M240
G4 P200
G1 X123.333 Y69.2598
G4 P20
M240
G4 P200
G1 X125.333 Y69.2598 E1
G4 P20
M240
G4 P200
G1 X144 Y69.2598
G4 P20
M240
G4 P200
G1 X146 Y69.2598 E1
G4 P20
M240
G4 P200
G1 X164.667 Y69.2598
G4 P20
M240
G4 P200
G1 X166.667 Y69.2598 E1
G4 P20
M240
G4 P200
G1 X185.333 Y69.2598
G4 P20
M240
G4 P200
G1 X187.333 Y69.2598 E1
G4 P20
M240
G4 P200
G1 X206 Y69.2598
G4 P20
M240
G4 P200
G1 X208 Y69.2598 E1
G4 P20
M240
G4 P200
G1 X226.667 Y69.2598
G4 P20
M240
G4 P200
G1 X228.667 Y69.2598 E1
G4 P20
M240
G4 P200
G1 X216.333 Y88.8897
G4 P20
M240
G4 P200
G1 X218.333 Y88.8897 E1
G4 P20
M240
G4 P200
G1 X195.667 Y88.8897
G4 P20
M240
G4 P200
G1 X197.667 Y88.8897 E1
G4 P20
M240
G4 P200
G1 X175 Y88.8897
G4 P20
M240
G4 P200
G1 X177 Y88.8897 E1
G4 P20
M240
G4 P200
G1 X154.333 Y88.8897
G4 P20
M240
G4 P200
G1 X156.333 Y88.8897 E1
G4 P20
M240
G4 P200
G1 X133.667 Y88.8897
G4 P20
M240
G4 P200
G1 X135.667 Y88.8897 E1
G4 P20
M240
G4 P200
G1 X113 Y88.8897
G4 P20
M240
G4 P200
G1 X115 Y88.8897 E1
G4 P20
M240
G4 P200
G1 X92.3334 Y88.8897
G4 P20
M240
G4 P200
G1 X94.3334 Y88.8897 E1
G4 P20
M240
G4 P200
G1 X71.6667 Y88.8897
G4 P20
M240
G4 P200
G1 X73.6667 Y88.8897 E1
G4 P20
M240
G4 P200
G1 X51 Y88.8897
G4 P20
M240
G4 P200
G1 X53 Y88.8897 E1
G4 P20
M240
G4 P200
G1 X30.3333 Y88.8897
G4 P20
M240
G4 P200
G1 X32.3333 Y88.8897 E1
G4 P20
M240
G4 P200
G1 X20 Y108.52
G4 P20
M240
G4 P200
G1 X22 Y108.52 E1
G4 P20
M240
G4 P200
G1 X40.6667 Y108.52
G4 P20
M240
G4 P200
G1 X42.6667 Y108.52 E1
G4 P20
M240
G4 P200
G1 X61.3333 Y108.52
G4 P20
M240
G4 P200
G1 X63.3333 Y108.52 E1
G4 P20
M240
G4 P200
G1 X82 Y108.52
G4 P20
M240
G4 P200
G1 X84 Y108.52 E1
G4 P20
M240
G4 P200
G1 X102.667 Y108.52
G4 P20
M240
G4 P200
G1 X104.667 Y108.52 E1
G4 P20
M240
G4 P200
G1 X123.333 Y108.52
G4 P20
M240
G4 P200
G1 X125.333 Y108.52 E1
G4 P20
M240
G4 P200
G1 X144 Y108.52
G4 P20
M240
G4 P200
G1 X146 Y108.52 E1
G4 P20
M240
G4 P200
G1 X164.667 Y108.52
G4 P20
M240
G4 P200
G1 X166.667 Y108.52 E1
G4 P20
M240
G4 P200
G1 X185.333 Y108.52
G4 P20
M240
G4 P200
G1 X187.333 Y108.52 E1
G4 P20
M240
G4 P200
G1 X206 Y108.52
G4 P20
M240
G4 P200
G1 X208 Y108.52 E1
G4 P20
M240
G4 P200
G1 X226.667 Y108.52
G4 P20
M240
G4 P200
G1 X228.667 Y108.52 E1
G4 P20
M240
G4 P200
G1 X216.333 Y128.15
G4 P20
M240
G4 P200
G1 X218.333 Y128.15 E1
G4 P20
M240
G4 P200
G1 X195.667 Y128.15
G4 P20
M240
G4 P200
G1 X197.667 Y128.15 E1
G4 P20
M240
G4 P200
G1 X175 Y128.15
G4 P20
M240
G4 P200
G1 X177 Y128.15 E1
G4 P20
M240
G4 P200
G1 X154.333 Y128.15
G4 P20
M240
G4 P200
G1 X156.333 Y128.15 E1
G4 P20
M240
G4 P200
G1 X133.667 Y128.15
G4 P20
M240
G4 P200
G1 X135.667 Y128.15 E1
G4 P20
M240
G4 P200
G1 X113 Y128.15
G4 P20
M240
G4 P200
G1 X115 Y128.15 E1
G4 P20
M240
G4 P200
G1 X92.3334 Y128.15
G4 P20
M240
G4 P200
G1 X94.3334 Y128.15 E1
G4 P20
M240
G4 P200
G1 X71.6667 Y128.15
G4 P20
M240
G4 P200
G1 X73.6667 Y128.15 E1
G4 P20
M240
G4 P200
G1 X51 Y128.15
G4 P20
M240
G4 P200
G1 X53 Y128.15 E1
G4 P20
M240
G4 P200
G1 X30.3333 Y128.15
G4 P20
M240
G4 P200
G1 X32.3333 Y128.15 E1
G4 P20
M240
G4 P200
G1 X20 Y147.779
G4 P20
M240
G4 P200
G1 X22 Y147.779 E1
G4 P20
M240
G4 P200
G1 X40.6667 Y147.779
G4 P20
M240
G4 P200
G1 X42.6667 Y147.779 E1
G4 P20
M240
G4 P200
G1 X61.3333 Y147.779
G4 P20
M240
G4 P200
G1 X63.3333 Y147.779 E1
G4 P20
M240
G4 P200
G1 X82 Y147.779
G4 P20
M240
G4 P200
G1 X84 Y147.779 E1
G4 P20
M240
G4 P200
G1 X102.667 Y147.779
G4 P20
M240
G4 P200
G1 X104.667 Y147.779 E1
G4 P20
M240
G4 P200
G1 X123.333 Y147.779
G4 P20
M240
G4 P200
G1 X125.333 Y147.779 E1
G4 P20
M240
G4 P200
G1 X144 Y147.779
G4 P20
M240
G4 P200
G1 X146 Y147.779 E1
G4 P20
M240
G4 P200
G1 X164.667 Y147.779
G4 P20
M240
G4 P200
G1 X166.667 Y147.779 E1
G4 P20
M240
G4 P200
G1 X185.333 Y147.779
G4 P20
M240
G4 P200
G1 X187.333 Y147.779 E1
G4 P20
M240
G4 P200
G1 X206 Y147.779
G4 P20
M240
G4 P200
G1 X208 Y147.779 E1
G4 P20
M240
G4 P200
G1 X226.667 Y147.779
G4 P20
M240
G4 P200
G1 X228.667 Y147.779 E1
G4 P20
M240
G4 P200
G1 X216.333 Y167.409
G4 P20
M240
G4 P200
G1 X218.333 Y167.409 E1
G4 P20
M240
G4 P200
G1 X195.667 Y167.409
G4 P20
M240
G4 P200
G1 X197.667 Y167.409 E1
G4 P20
M240
G4 P200
G1 X175 Y167.409
G4 P20
M240
G4 P200
G1 X177 Y167.409 E1
G4 P20
M240
G4 P200
G1 X154.333 Y167.409
G4 P20
M240
G4 P200
G1 X156.333 Y167.409 E1
G4 P20
M240
G4 P200
G1 X133.667 Y167.409
G4 P20
M240
G4 P200
G1 X135.667 Y167.409 E1
G4 P20
M240
G4 P200
G1 X113 Y167.409
G4 P20
M240
G4 P200
G1 X115 Y167.409 E1
G4 P20
M240
G4 P200
G1 X92.3334 Y167.409
G4 P20
M240
G4 P200
G1 X94.3334 Y167.409 E1
G4 P20
M240
G4 P200
G1 X71.6667 Y167.409
G4 P20
M240
G4 P200
G1 X73.6667 Y167.409 E1
G4 P20
M240
G4 P200
G1 X51 Y167.409
G4 P20
M240
G4 P200
G1 X53 Y167.409 E1
G4 P20
M240
G4 P200
G1 X30.3333 Y167.409
G4 P20
M240
G4 P200
G1 X32.3333 Y167.409 E1
G4 P20
M240
G4 P200
G1 X20 Y187.039
G4 P20
M240
G4 P200
G1 X22 Y187.039 E1
G4 P20
M240
G4 P200
G1 X40.6667 Y187.039
G4 P20
M240
G4 P200
G1 X42.6667 Y187.039 E1
G4 P20
M240
G4 P200
G1 X61.3333 Y187.039
G4 P20
M240
G4 P200
G1 X63.3333 Y187.039 E1
G4 P20
M240
G4 P200
G1 X82 Y187.039
G4 P20
M240
G4 P200
G1 X84 Y187.039 E1
G4 P20
M240
G4 P200
G1 X102.667 Y187.039
G4 P20
M240
G4 P200
G1 X104.667 Y187.039 E1
G4 P20
M240
G4 P200
G1 X123.333 Y187.039
G4 P20
M240
G4 P200
G1 X125.333 Y187.039 E1
G4 P20
M240
G4 P200
G1 X144 Y187.039
G4 P20
M240
G4 P200
G1 X146 Y187.039 E1
G4 P20
M240
G4 P200
G1 X164.667 Y187.039
G4 P20
M240
G4 P200
G1 X166.667 Y187.039 E1
G4 P20
M240
G4 P200
G1 X185.333 Y187.039
G4 P20
M240
G4 P200
G1 X187.333 Y187.039 E1
G4 P20
M240
G4 P200
G1 X206 Y187.039
G4 P20
M240
G4 P200
G1 X208 Y187.039 E1
G4 P20
M240
G4 P200
G1 X226.667 Y187.039
G4 P20
M240
G4 P200
G1 X228.667 Y187.039 E1
G4 P20
M240
G4 P200
G1 X216.333 Y206.669
G4 P20
M240
G4 P200
G1 X218.333 Y206.669 E1
G4 P20
M240
G4 P200
G1 X195.667 Y206.669
G4 P20
M240
G4 P200
G1 X197.667 Y206.669 E1
G4 P20
M240
G4 P200
G1 X175 Y206.669
G4 P20
M240
G4 P200
G1 X177 Y206.669 E1
G4 P20
M240
G4 P200
G1 X154.333 Y206.669
G4 P20
M240
G4 P200
G1 X156.333 Y206.669 E1
G4 P20
M240
G4 P200
G1 X133.667 Y206.669
G4 P20
M240
G4 P200
G1 X135.667 Y206.669 E1
G4 P20
M240
G4 P200
G1 X113 Y206.669
G4 P20
M240
G4 P200
G1 X115 Y206.669 E1
G4 P20
M240
G4 P200
G1 X92.3334 Y206.669
G4 P20
M240
G4 P200
G1 X94.3334 Y206.669 E1
G4 P20
M240
G4 P200
G1 X71.6667 Y206.669
G4 P20
M240
G4 P200
G1 X73.6667 Y206.669 E1
G4 P20
M240
G4 P200
G1 X51 Y206.669
G4 P20
M240
G4 P200
G1 X53 Y206.669 E1
G4 P20
M240
G4 P200
G1 X30.3333 Y206.669
G4 P20
M240
G4 P200
G1 X32.3333 Y206.669 E1
G4 P20
M240
G4 P200
G1 X20 Y226.299
G4 P20
M240
G4 P200
G1 X22 Y226.299 E1
G4 P20
M240
G4 P200
